X:40
T:Coalminer's
Z: id:dc-reel-358
M:C
L:1/8
K:G Major
GE|DGG2 DGBd|d2BG AGEG|DGG2 DGBd|gedB ABGE|!
DGG2 DGBd|d2BG AGEG|DGG2 DGBd|gedB G2:|!
Bd|g3e dege|d2BG AGEG|g3e dega|bagb a2ga|!
bgg2 ageg|d2BG AGEG|DGG2 DGBd|gedB G2:|!

